src/pos-icons/contain-start.svg

<svg height="24" viewBox="0 0 24 24" width="24" xmlns="http://www.w3.org/2000/svg"><path d="m2 3h6v2h-4v14h4v2h-6zm5 14v-2h2v2zm4 0v-2h2v2zm4 0v-2h2v2z"/></svg>

<?xml version="1.0" encoding="UTF-8"?><!DOCTYPE svg PUBLIC "-//W3C//DTD SVG 1.1//EN" "http://www.w3.org/Graphics/SVG/1.1/DTD/svg11.dtd"><svg xmlns="http://www.w3.org/2000/svg" xmlns:xlink="http://www.w3.org/1999/xlink" version="1.1" id="mdi-contain-start" width="24" height="24" viewBox="0 0 24 24"><path d="M2,3H8V5H4V19H8V21H2V3M7,17V15H9V17H7M11,17V15H13V17H11M15,17V15H17V17H15Z" /></svg>
